Papirus/32x32/apps/system-software-update.svg

<svg xmlns="http://www.w3.org/2000/svg" width="32" height="32" version="1">
 <path d="M 23.084999,9.9963642 C 22.10953,9.9682208 21.181343,10.41734 20.596565,11.200434 l -3.000183,4.023355 c -0.944365,1.266013 -0.749782,3.048742 0.445341,4.080133 -0.997405,0.791875 -2.488438,1.088644 -3.550998,0.469882 l 0.839894,0.728315 c -1.424892,-1.794916 -3.99191,-1.860254 -5.5276813,-0.855576 -0.7678855,0.50234 -1.4946148,1.317987 -1.7403407,2.515822 -0.2457258,1.197835 0.2345021,2.591901 0.974669,3.41251 0.1296533,0.144046 0.2729077,0.275179 0.4277605,0.391567 0.9205865,0.690083 1.9268685,1.189394 2.9685375,1.524466 2.362287,0.74898 4.235735,0.559021 6.604359,0.147574 3.863088,-0.999783 6.552272,-4.058987 7.516084,-7.661018 2.179524,-0.412868 3.174117,-2.971588 1.84777,-4.753629 L 25.401596,11.200481 C 24.85307,10.465917 24.000016,10.022518 23.084999,9.9963642 Z m -0.05664,13.0019968 -0.06836,0.07635 c 0.01054,-0.01138 0.0091,-0.02578 0.01953,-0.0372 0.01412,-0.01612 0.03481,-0.02293 0.04884,-0.03916 z" style="opacity:0.2"/>
 <path style="fill:#ff9932" d="M 23.084999,8.9963639 C 22.10953,8.9682205 21.181343,9.4173398 20.596565,10.200434 l -3.000183,4.023355 c -0.944365,1.266013 -0.749782,3.048742 0.445341,4.080133 -0.997405,0.791875 -2.488438,1.088644 -3.550998,0.469882 l 0.839894,0.728315 c -1.424892,-1.794916 -3.99191,-1.860254 -5.5276813,-0.855576 -0.7678855,0.50234 -1.4946148,1.317987 -1.7403407,2.515822 -0.2457258,1.197835 0.2345021,2.591901 0.974669,3.41251 0.1296533,0.144046 0.2729077,0.275179 0.4277605,0.391567 0.9205865,0.690083 1.9268685,1.189394 2.9685375,1.524466 2.362287,0.74898 4.235735,0.559021 6.604359,0.147574 3.863088,-0.999783 6.552272,-4.058987 7.516084,-7.661018 2.179524,-0.412868 3.174117,-2.971588 1.84777,-4.753629 L 25.401596,10.200481 C 24.85307,9.4659172 24.000016,9.0225177 23.084999,8.9963639 Z m -0.05664,13.0019971 -0.06836,0.07635 c 0.01054,-0.01138 0.0091,-0.02578 0.01953,-0.0372 0.01412,-0.01612 0.03481,-0.02293 0.04884,-0.03916 z"/>
 <path style="opacity:0.1;fill:#ffffff" d="M 23.085938 8.9960938 C 22.110468 8.9679503 21.180481 9.4180777 20.595703 10.201172 L 17.595703 14.224609 C 17.085183 14.909012 16.919418 15.741262 17.052734 16.527344 C 17.12932 16.068436 17.299942 15.621106 17.595703 15.224609 L 20.595703 11.201172 C 21.180481 10.418078 22.110468 9.9679503 23.085938 9.9960938 C 24.000955 10.022248 24.853818 10.466608 25.402344 11.201172 L 28.402344 15.224609 C 28.698584 15.622629 28.871883 16.059006 28.949219 16.501953 C 29.075067 15.739896 28.92295 14.924081 28.402344 14.224609 L 25.402344 10.201172 C 24.853818 9.4666081 24.000955 9.0222475 23.085938 8.9960938 z M 11.851562 18.001953 C 11.100222 18.042984 10.378649 18.26973 9.8027344 18.646484 C 9.0348489 19.148824 8.3082259 19.964274 8.0625 21.162109 C 7.9846118 21.54179 7.9878698 21.941338 8.0410156 22.335938 C 8.0494634 22.278219 8.0508243 22.219025 8.0625 22.162109 C 8.3082259 20.964274 9.0348489 20.148824 9.8027344 19.646484 C 11.119988 18.784757 13.191115 18.718834 14.654297 19.847656 C 15.7026 20.351624 17.092532 20.057722 18.041016 19.304688 C 17.819292 19.11334 17.646105 18.889267 17.494141 18.654297 C 16.604385 19.133164 15.516229 19.262027 14.654297 18.847656 C 13.83083 18.212364 12.818718 17.949137 11.851562 18.001953 z M 23.029297 22.998047 C 23.015267 23.014277 22.994589 23.020989 22.980469 23.037109 C 22.970039 23.048529 22.971477 23.062839 22.960938 23.074219 L 23.029297 22.998047 z"/>
 <path d="m 23,12.986 -3,4.013672 2,0 c 0.0067,1.4563 -0.228781,2.907041 -1.238281,3.994141 -1.8975,2.19064 -5.255344,2.806996 -7.777344,1.341797 -0.83781,-1.052901 -2.696943,0.10184 -1.720703,1.18164 1.3886,1.03847 2.96555,1.46505 4.71875,1.46875 l 0.002,-0.002 c 0.7789,0.0078 1.550581,-0.101408 2.300781,-0.298828 3.496553,-0.900553 5.767807,-4.2083 5.714797,-7.6855 l 2,0 L 23,12.986 Z" style="opacity:0.1"/>
 <path style="fill:#3f3f3f" d="M 23,11.986328 20,16 l 2,0 c 0.0067,1.4563 -0.228781,2.907041 -1.238281,3.994141 -1.8975,2.19064 -5.255344,2.806996 -7.777344,1.341797 -0.83781,-1.052901 -2.696943,0.10184 -1.720703,1.18164 1.3886,1.03847 2.96555,1.46505 4.71875,1.46875 l 0.002,-0.002 c 0.7789,0.0078 1.550581,-0.101408 2.300781,-0.298828 C 21.781756,22.784947 24.05301,19.4772 24,16 l 2,0 -3,-4.013672 z"/>
 <path d="m 16.033787,6.0004182 c -1.076076,-0.00949 -2.107554,0.143166 -3.074406,0.397441 C 9.0962875,7.3976808 6.4071118,10.456845 5.4432965,14.058876 a 3.0004833,3.0075388 0 0 0 -1.8477691,4.753628 l 3.0001832,4.023356 a 3.0004833,3.0075388 0 0 0 4.8049814,0 l 3.000183,-4.023356 A 3.0004833,3.0075388 0 0 0 13.98288,14.759781 c 0.935466,-0.634833 2.600693,-1.034762 3.523653,-0.49729 l -0.839895,-0.728316 c 1.425457,1.795624 3.994845,1.859332 5.529635,0.853618 0.767394,-0.502859 1.492965,-1.318566 1.738387,-2.515822 0.245423,-1.197254 -0.234199,-2.5915654 -0.974668,-3.4125092 A 3.0004833,3.0075388 0 0 0 22.532231,8.0678944 C 20.58865,6.6109622 18.264151,6.0072311 16.033787,6.0004182 Z M 9.037266,10.961578 c -0.00682,0.0074 -0.0069,0.01612 -0.013673,0.02349 -0.010316,0.01158 -0.024895,0.01773 -0.035158,0.02937 l 0.048831,-0.05286 z" style="opacity:0.2"/>
 <path style="fill:#ffdb56" d="m 16.033787,5.0004179 c -1.076076,-0.00949 -2.107554,0.143166 -3.074406,0.397441 C 9.0962875,6.3976805 6.4071118,9.4568447 5.4432965,13.058876 a 3.0004833,3.0075388 0 0 0 -1.8477691,4.753628 l 3.0001832,4.023356 a 3.0004833,3.0075388 0 0 0 4.8049814,0 l 3.000183,-4.023356 A 3.0004833,3.0075388 0 0 0 13.98288,13.759781 c 0.935466,-0.634833 2.600693,-1.034762 3.523653,-0.49729 l -0.839895,-0.728316 c 1.425457,1.795624 3.994845,1.859332 5.529635,0.853618 0.767394,-0.502859 1.492965,-1.318566 1.738387,-2.515822 C 24.180083,9.6747163 23.700461,8.2804053 22.959992,7.4594615 A 3.0004833,3.0075388 0 0 0 22.532231,7.0678941 C 20.58865,5.6109619 18.264151,5.0072308 16.033787,5.0004179 Z M 9.037266,9.9615777 c -0.00682,0.00735 -0.0069,0.016118 -0.013673,0.023493 -0.010316,0.011577 -0.024895,0.017734 -0.035158,0.029367 l 0.048831,-0.052861 z"/>
 <path d="M 16.017578,8.999672 C 15.238678,8.991922 14.465044,9.1030333 13.714844,9.3004532 10.218244,10.201053 7.946987,13.5088 8,16.986 l -2,0 3,4.013672 3,-4.013672 -2,0 c -0.0067,-1.4563 0.228781,-2.907041 1.238281,-3.99414 1.7614,-1.9918 5.255344,-2.806997 7.777344,-1.341797 0.83781,1.0529 2.696943,-0.103794 1.720703,-1.183594 -1.3886,-1.0384701 -2.96555,-1.463097 -4.71875,-1.466797 z" style="opacity:0.1"/>
 <path style="fill:#3f3f3f" d="M 16.017578,8 C 15.238678,7.99225 14.465044,8.1033613 13.714844,8.3007812 10.218244,9.2013812 7.946987,12.509128 8,15.986328 l -2,0 L 9,20 l 3,-4.013672 -2,0 c -0.0067,-1.4563 0.228781,-2.907041 1.238281,-3.99414 1.7614,-1.9918 5.255344,-2.8069974 7.777344,-1.341797 0.83781,1.0529 2.696943,-0.103794 1.720703,-1.1835941 C 19.347728,8.4283269 17.770778,8.0037 16.017578,8 Z"/>
 <path style="opacity:0.2;fill:#ffffff" d="M 16.033203 5 C 14.957127 4.99051 13.925836 5.1441625 12.958984 5.3984375 C 9.0958909 6.3982591 6.4071747 9.4565624 5.4433594 13.058594 A 3.0004833 3.0075388 0 0 0 3.0449219 16.507812 A 3.0004833 3.0075388 0 0 1 5.4433594 14.058594 C 6.4071747 10.456563 9.0958909 7.3982591 12.958984 6.3984375 C 13.925836 6.1441625 14.957127 5.99051 16.033203 6 C 18.263567 6.0068129 20.589622 6.6114272 22.533203 8.0683594 A 3.0004833 3.0075388 0 0 1 22.960938 8.4589844 C 23.466698 9.0197119 23.842572 9.8490049 23.957031 10.699219 C 24.12666 9.5423747 23.666465 8.2411896 22.960938 7.4589844 A 3.0004833 3.0075388 0 0 0 22.533203 7.0683594 C 20.589622 5.6114272 18.263567 5.0068129 16.033203 5 z M 9.0371094 10.960938 L 8.9882812 11.013672 C 8.9985443 11.002032 9.0131215 10.995955 9.0234375 10.984375 C 9.0302105 10.977005 9.0302894 10.968338 9.0371094 10.960938 z M 14.556641 14.447266 C 14.349356 14.542276 14.150946 14.645401 13.982422 14.759766 A 3.0004833 3.0075388 0 0 1 14.953125 16.509766 A 3.0004833 3.0075388 0 0 0 14.556641 14.447266 z"/>
</svg>

<svg xmlns="http://www.w3.org/2000/svg" width="32" height="32" version="1">
 <path d="M 23.084999,9.9963642 C 22.10953,9.9682208 21.181343,10.41734 20.596565,11.200434 l -3.000183,4.023355 c -0.944365,1.266013 -0.749782,3.048742 0.445341,4.080133 -0.997405,0.791875 -2.488438,1.088644 -3.550998,0.469882 l 0.839894,0.728315 c -1.424892,-1.794916 -3.99191,-1.860254 -5.5276813,-0.855576 -0.7678855,0.50234 -1.4946148,1.317987 -1.7403407,2.515822 -0.2457258,1.197835 0.2345021,2.591901 0.974669,3.41251 0.1296533,0.144046 0.2729077,0.275179 0.4277605,0.391567 0.9205865,0.690083 1.9268685,1.189394 2.9685375,1.524466 2.362287,0.74898 4.235735,0.559021 6.604359,0.147574 3.863088,-0.999783 6.552272,-4.058987 7.516084,-7.661018 2.179524,-0.412868 3.174117,-2.971588 1.84777,-4.753629 L 25.401596,11.200481 C 24.85307,10.465917 24.000016,10.022518 23.084999,9.9963642 Z m -0.05664,13.0019968 -0.06836,0.07635 c 0.01054,-0.01138 0.0091,-0.02578 0.01953,-0.0372 0.01412,-0.01612 0.03481,-0.02293 0.04884,-0.03916 z" style="opacity:0.2"/>
 <path style="fill:#ff9932" d="M 23.084999,8.9963639 C 22.10953,8.9682205 21.181343,9.4173398 20.596565,10.200434 l -3.000183,4.023355 c -0.944365,1.266013 -0.749782,3.048742 0.445341,4.080133 -0.997405,0.791875 -2.488438,1.088644 -3.550998,0.469882 l 0.839894,0.728315 c -1.424892,-1.794916 -3.99191,-1.860254 -5.5276813,-0.855576 -0.7678855,0.50234 -1.4946148,1.317987 -1.7403407,2.515822 -0.2457258,1.197835 0.2345021,2.591901 0.974669,3.41251 0.1296533,0.144046 0.2729077,0.275179 0.4277605,0.391567 0.9205865,0.690083 1.9268685,1.189394 2.9685375,1.524466 2.362287,0.74898 4.235735,0.559021 6.604359,0.147574 3.863088,-0.999783 6.552272,-4.058987 7.516084,-7.661018 2.179524,-0.412868 3.174117,-2.971588 1.84777,-4.753629 L 25.401596,10.200481 C 24.85307,9.4659172 24.000016,9.0225177 23.084999,8.9963639 Z m -0.05664,13.0019971 -0.06836,0.07635 c 0.01054,-0.01138 0.0091,-0.02578 0.01953,-0.0372 0.01412,-0.01612 0.03481,-0.02293 0.04884,-0.03916 z"/>
 <path d="m 16.033787,6.0004182 c -1.076076,-0.00949 -2.107554,0.143166 -3.074406,0.397441 C 9.0962875,7.3976808 6.4071118,10.456845 5.4432965,14.058876 a 3.0004833,3.0075388 0 0 0 -1.8477691,4.753628 l 3.0001832,4.023356 a 3.0004833,3.0075388 0 0 0 4.8049814,0 l 3.000183,-4.023356 A 3.0004833,3.0075388 0 0 0 13.98288,14.759781 c 0.935466,-0.634833 2.600693,-1.034762 3.523653,-0.49729 l -0.839895,-0.728316 c 1.425457,1.795624 3.994845,1.859332 5.529635,0.853618 0.767394,-0.502859 1.492965,-1.318566 1.738387,-2.515822 0.245423,-1.197254 -0.234199,-2.5915654 -0.974668,-3.4125092 A 3.0004833,3.0075388 0 0 0 22.532231,8.0678944 C 20.58865,6.6109622 18.264151,6.0072311 16.033787,6.0004182 Z M 9.037266,10.961578 c -0.00682,0.0074 -0.0069,0.01612 -0.013673,0.02349 -0.010316,0.01158 -0.024895,0.01773 -0.035158,0.02937 l 0.048831,-0.05286 z" style="opacity:0.2"/>
 <path style="fill:#ffda43" d="m 16.033787,5.0004179 c -1.076076,-0.00949 -2.107554,0.143166 -3.074406,0.397441 C 9.0962875,6.3976805 6.4071118,9.4568447 5.4432965,13.058876 a 3.0004833,3.0075388 0 0 0 -1.8477691,4.753628 l 3.0001832,4.023356 a 3.0004833,3.0075388 0 0 0 4.8049814,0 l 3.000183,-4.023356 A 3.0004833,3.0075388 0 0 0 13.98288,13.759781 c 0.935466,-0.634833 2.600693,-1.034762 3.523653,-0.49729 l -0.839895,-0.728316 c 1.425457,1.795624 3.994845,1.859332 5.529635,0.853618 0.767394,-0.502859 1.492965,-1.318566 1.738387,-2.515822 C 24.180083,9.6747163 23.700461,8.2804053 22.959992,7.4594615 A 3.0004833,3.0075388 0 0 0 22.532231,7.0678941 C 20.58865,5.6109619 18.264151,5.0072308 16.033787,5.0004179 Z M 9.037266,9.9615777 c -0.00682,0.00735 -0.0069,0.016118 -0.013673,0.023493 -0.010316,0.011577 -0.024895,0.017734 -0.035158,0.029367 l 0.048831,-0.052861 z"/>
 <path style="opacity:0.2;fill:#ffffff" d="M 16.033203 5 C 14.957127 4.99051 13.925836 5.1441625 12.958984 5.3984375 C 9.0958909 6.3982591 6.4071747 9.4565624 5.4433594 13.058594 A 3.0004833 3.0075388 0 0 0 3.0449219 16.507812 A 3.0004833 3.0075388 0 0 1 5.4433594 14.058594 C 6.4071747 10.456563 9.0958909 7.3982591 12.958984 6.3984375 C 13.925836 6.1441625 14.957127 5.99051 16.033203 6 C 18.263567 6.0068129 20.589622 6.6114272 22.533203 8.0683594 A 3.0004833 3.0075388 0 0 1 22.960938 8.4589844 C 23.466698 9.0197119 23.842572 9.8490049 23.957031 10.699219 C 24.12666 9.5423747 23.666465 8.2411896 22.960938 7.4589844 A 3.0004833 3.0075388 0 0 0 22.533203 7.0683594 C 20.589622 5.6114272 18.263567 5.0068129 16.033203 5 z M 9.0371094 10.960938 L 8.9882812 11.013672 C 8.9985443 11.002032 9.0131215 10.995955 9.0234375 10.984375 C 9.0302105 10.977005 9.0302894 10.968338 9.0371094 10.960938 z M 14.556641 14.447266 C 14.349356 14.542276 14.150946 14.645401 13.982422 14.759766 A 3.0004833 3.0075388 0 0 1 14.953125 16.509766 A 3.0004833 3.0075388 0 0 0 14.556641 14.447266 z"/>
 <path d="M 16.017578,8.999672 C 15.238678,8.991922 14.465044,9.1030333 13.714844,9.3004532 10.218244,10.201053 7.946987,13.5088 8,16.986 l -2,0 3,4.013672 3,-4.013672 -2,0 c -0.0067,-1.4563 0.228781,-2.907041 1.238281,-3.99414 1.7614,-1.9918 5.255344,-2.806997 7.777344,-1.341797 0.83781,1.0529 2.696943,-0.103794 1.720703,-1.183594 -1.3886,-1.0384701 -2.96555,-1.463097 -4.71875,-1.466797 z" style="opacity:0.1"/>
 <path style="fill:#3f3f3f" d="M 16.017578,8 C 15.238678,7.99225 14.465044,8.1033613 13.714844,8.3007812 10.218244,9.2013812 7.946987,12.509128 8,15.986328 l -2,0 L 9,20 l 3,-4.013672 -2,0 c -0.0067,-1.4563 0.228781,-2.907041 1.238281,-3.99414 1.7614,-1.9918 5.255344,-2.8069974 7.777344,-1.341797 0.83781,1.0529 2.696943,-0.103794 1.720703,-1.1835941 C 19.347728,8.4283269 17.770778,8.0037 16.017578,8 Z"/>
 <path d="m 23,12.986 -3,4.013672 2,0 c 0.0067,1.4563 -0.228781,2.907041 -1.238281,3.994141 -1.8975,2.19064 -5.255344,2.806996 -7.777344,1.341797 -0.83781,-1.052901 -2.696943,0.10184 -1.720703,1.18164 1.3886,1.03847 2.96555,1.46505 4.71875,1.46875 l 0.002,-0.002 c 0.7789,0.0078 1.550581,-0.101408 2.300781,-0.298828 3.496553,-0.900553 5.767807,-4.2083 5.714797,-7.6855 l 2,0 L 23,12.986 Z" style="opacity:0.1"/>
 <path d="M 23.084999,8.9963639 C 22.10953,8.9682205 21.181343,9.4173398 20.596565,10.200434 l -3.000183,4.023355 -0.298463,0.496322 2.501673,0.972425 8.602185,-1.468701 -3.000181,-4.023354 C 24.85307,9.4659172 24.000016,9.0225177 23.084999,8.9963639 Z" style="fill:#ff9932"/>
 <path style="fill:#3f3f3f" d="M 23 11.986328 L 20 16 L 22 16 C 22.0067 17.4563 21.771219 18.907041 20.761719 19.994141 C 18.864219 22.184781 15.506375 22.801136 12.984375 21.335938 C 12.735503 21.023173 12.398336 20.922447 12.070312 20.939453 L 11.400391 21.835938 C 11.298493 21.972453 11.176388 22.080027 11.058594 22.193359 C 11.103359 22.300755 11.165861 22.409391 11.263672 22.517578 C 12.652272 23.556048 14.229222 23.982628 15.982422 23.986328 L 15.984375 23.984375 C 16.763275 23.992175 17.534956 23.882967 18.285156 23.685547 C 21.781709 22.784994 24.05301 19.4772 24 16 L 26 16 L 23 11.986328 z"/>
</svg>
